src/images/lines.svg

<?xml version="1.0" encoding="UTF-8"?>
<svg width="1440px" height="406px" viewBox="0 0 1440 406" version="1.1" xmlns="http://www.w3.org/2000/svg" xmlns:xlink="http://www.w3.org/1999/xlink">
    <!-- Generator: Sketch 49.3 (51167) - http://www.bohemiancoding.com/sketch -->
    <title>lines</title>
    <desc>Created with Sketch.</desc>
    <defs>
        <linearGradient x1="50%" y1="-127.414292%" x2="50%" y2="87.223066%" id="linearGradient-1">
            <stop stop-color="#6146D7" offset="0%"></stop>
            <stop stop-color="#27253F" offset="100%"></stop>
        </linearGradient>
    </defs>
    <g id="Page-1" stroke="none" stroke-width="1" fill="none" fill-rule="evenodd">
        <g id="Desktop-HD-Copy" transform="translate(0.000000, -663.000000)">
            <g id="lines" transform="translate(719.000000, 866.500000) scale(-1, 1) translate(-719.000000, -866.500000) translate(-2.000000, 664.000000)">
                <path d="M0,151 C15.3404255,151 15.3404255,118.776822 30.6808511,118.776822 C46.0212766,118.776822 46.0212766,48.8974801 61.3617022,48.8974801 C76.7021277,48.8974801 76.7021277,83.2191781 92.0425531,83.2191781 C107.382979,83.2191781 107.382979,10.818966 122.723404,10.818966 C138.06383,10.818966 138.06383,34.7588689 153.404255,34.7588689 C168.744681,34.7588689 163.659574,77.3377344 179,77.3377344 C194.340425,77.3377344 199.425531,166.5 214.765958,166.5 C230.106383,166.5 230.106383,49.0037265 245.446808,49.0037265 C260.787234,49.0037265 260.787234,134.066035 276.127659,134.066035 C291.468084,134.066035 291.468084,77.3377344 306.808511,77.3377344 C322.148936,77.3377344 313.159575,106.554279 328.5,106.554279 C343.840427,106.554279 352.829788,1.78654614 368.170212,1.78654614 C383.510639,1.78654614 383.510639,12.9046946 398.851064,12.9046946 C414.191489,12.9046946 414.191489,77.3377344 429.531916,77.3377344 C444.872341,77.3377344 444.872341,137.228539 460.212766,137.228539 C475.553192,137.228539 475.553192,68.6142697 490.893617,68.6142697 C506.234042,68.6142697 506.234042,10.818966 521.574469,10.818966 C536.914894,10.818966 536.914894,28.5009283 552.255319,28.5009283 C567.595745,28.5009283 567.595745,54.6324088 582.93617,54.6324088 C598.276595,54.6324088 598.276595,117.369847 613.617022,117.369847 C628.957447,117.369847 628.957447,142.289816 644.297872,142.289816 C659.638299,142.289816 659.638299,139.814562 674.978723,139.814562 C690.319148,139.814562 690.319148,229.346573 705.659575,229.346573 C721,229.346573 721,187 736.340425,187 C751.680852,187 751.680852,248.187443 767.021277,248.187443 C782.361701,248.187443 782.361701,236.548772 797.702128,236.548772 C813.042553,236.548772 813.042553,174.859849 828.382978,174.859849 C843.723405,174.859849 843.723405,118.519299 859.06383,118.519299 C874.404255,118.519299 874.404255,77.3377344 889.744681,77.3377344 C905.085106,77.3377344 905.085106,28.5009283 920.425531,28.5009283 C935.765958,28.5009283 935.765958,49.0037265 951.106383,49.0037265 C966.446808,49.0037265 966.446808,1.67951798 981.787234,1.67951798 C997.127659,1.67951798 997.127659,77.5057769 1012.46808,77.5057769 C1027.80851,77.5057769 1027.80851,25.9186787 1043.14894,25.9186787 C1058.48936,25.9186787 1058.48936,0 1073.82979,0 C1089.17021,0 1089.17021,8.31385955 1104.51064,8.31385955 C1119.85106,8.31385955 1119.85106,34.6835072 1135.19149,34.6835072 C1150.53192,34.6835072 1150.53192,23.4921966 1165.87234,23.4921966 C1181.21277,23.4921966 1181.21277,54.6324088 1196.55319,54.6324088 C1211.89362,54.6324088 1211.89362,1.67951798 1227.23404,1.67951798 C1242.57447,1.67951798 1242.57447,106.554279 1257.91489,106.554279 C1273.25532,106.554279 1273.25532,25.9186787 1288.59575,25.9186787 C1303.93617,25.9186787 1303.93617,83.2191781 1319.2766,83.2191781 C1334.61702,83.2191781 1334.61702,46.1898783 1349.95745,46.1898783 C1365.29787,46.1898783 1365.29787,83.4 1380.6383,83.4 C1395.97872,83.4 1395.97872,46.1898783 1411.31915,46.1898783 C1426.65958,46.1898783 1426.65958,151.369847 1442,151.369847 L1442,399.452055 C1442,402.5161 1439.5169,405 1436.45385,405 L5.54615385,405 C2.48309766,405 3.75116195e-16,402.5161 0,399.452055 L0,151 Z" id="fill" fill="url(#linearGradient-1)" fill-rule="nonzero" opacity="0.545459692"></path>
                <path d="M0,151 C15.3404255,151 15.3404255,117.369847 30.6808511,117.369847 C46.0212766,117.369847 46.0212766,49.0037265 61.3617022,49.0037265 C76.7021277,49.0037265 76.7021277,83.4 92.0425531,83.4 C107.382979,83.4 107.382979,10.8424739 122.723404,10.8424739 C138.06383,10.8424739 138.06383,34.6835072 153.404255,34.6835072 C168.744681,34.6835072 163.659574,77.5057769 179,77.5057769 C194.340425,77.5057769 199.425531,166.5 214.765958,166.5 C230.106383,166.5 230.106383,46.1898783 245.446808,46.1898783 C260.787234,46.1898783 260.787234,134.066035 276.127659,134.066035 C291.468084,134.066035 291.468084,77.5057769 306.808511,77.5057769 C322.148936,77.5057769 313.159575,106.785804 328.5,106.785804 C343.840427,106.785804 352.829788,1.79042801 368.170212,1.79042801 C383.510639,1.79042801 383.510639,12.9327344 398.851064,12.9327344 C414.191489,12.9327344 414.191489,77.5057769 429.531916,77.5057769 C444.872341,77.5057769 444.872341,137.526715 460.212766,137.526715 C475.553192,137.526715 475.553192,68.7633575 490.893617,68.7633575 C506.234042,68.7633575 506.234042,10.8424739 521.574469,10.8424739 C536.914894,10.8424739 536.914894,28.5628563 552.255319,28.5628563 C567.595745,28.5628563 567.595745,54.7511163 582.93617,54.7511163 C598.276595,54.7511163 598.276595,117.624873 613.617022,117.624873 C628.957447,117.624873 628.957447,142.598989 644.297872,142.598989 C659.638299,142.598989 659.638299,140.118356 674.978723,140.118356 C690.319148,140.118356 690.319148,228.84932 705.659575,228.84932 C721,228.84932 721,187 736.340425,187 C751.680852,187 751.680852,248.726715 767.021277,248.726715 C782.361701,248.726715 782.361701,237.062754 797.702128,237.062754 C813.042553,237.062754 813.042553,175.239791 828.382978,175.239791 C843.723405,175.239791 843.723405,118.776822 859.06383,118.776822 C874.404255,118.776822 874.404255,77.5057769 889.744681,77.5057769 C905.085106,77.5057769 905.085106,28.5628563 920.425531,28.5628563 C935.765958,28.5628563 935.765958,49.0037265 951.106383,49.0037265 C966.446808,49.0037265 966.446808,1.6831673 981.787234,1.6831673 C997.127659,1.6831673 997.127659,77.5057769 1012.46808,77.5057769 C1027.80851,77.5057769 1027.80851,24.7515334 1043.14894,24.7515334 C1058.48936,24.7515334 1058.48936,0 1073.82979,0 C1089.17021,0 1089.17021,8.33192423 1104.51064,8.33192423 C1119.85106,8.33192423 1119.85106,34.7588689 1135.19149,34.7588689 C1150.53192,34.7588689 1150.53192,23.5432414 1165.87234,23.5432414 C1181.21277,23.5432414 1181.21277,54.7511163 1196.55319,54.7511163 C1211.89362,54.7511163 1211.89362,1.79042801 1227.23404,1.79042801 C1242.57447,1.79042801 1242.57447,106.785804 1257.91489,106.785804 C1273.25532,106.785804 1273.25532,25.9749958 1288.59575,25.9749958 C1303.93617,25.9749958 1303.93617,83.4 1319.2766,83.4 C1334.61702,83.4 1334.61702,46.7377255 1349.95745,46.7377255 C1365.29787,46.7377255 1365.29787,83.2191781 1380.6383,83.2191781 C1395.97872,83.2191781 1395.97872,46.2902415 1411.31915,46.2902415 C1426.65958,46.2902415 1426.65958,150.785804 1442,150.785804" id="line" stroke="#6146D7" stroke-width="2" opacity="0.546478714"></path>
            </g>
        </g>
    </g>
</svg>

<svg width="1440" height="406" xmlns="http://www.w3.org/2000/svg"><defs><linearGradient x1="50%" y1="-127.414%" x2="50%" y2="87.223%" id="a"><stop stop-color="#6146D7" offset="0%"/><stop stop-color="#27253F" offset="100%"/></linearGradient></defs><g fill="none" fill-rule="evenodd"><path d="M0 151c15.34 0 15.34-32.223 30.68-32.223 15.341 0 15.341-69.88 30.682-69.88 15.34 0 15.34 34.322 30.68 34.322 15.341 0 15.341-72.4 30.681-72.4 15.34 0 15.34 23.94 30.681 23.94 15.34 0 10.256 42.579 25.596 42.579s20.426 89.162 35.766 89.162 15.34-117.496 30.68-117.496c15.341 0 15.341 85.062 30.682 85.062 15.34 0 15.34-56.728 30.68-56.728s6.352 29.216 21.692 29.216S352.83 1.787 368.17 1.787c15.34 0 15.34 11.118 30.681 11.118 15.34 0 15.34 64.433 30.68 64.433 15.341 0 15.341 59.89 30.682 59.89 15.34 0 15.34-68.614 30.68-68.614 15.341 0 15.341-57.795 30.681-57.795 15.34 0 15.34 17.682 30.681 17.682 15.34 0 15.34 26.131 30.681 26.131 15.34 0 15.34 62.738 30.681 62.738 15.34 0 15.34 24.92 30.68 24.92 15.341 0 15.341-2.475 30.682-2.475 15.34 0 15.34 89.532 30.68 89.532C721 229.347 721 187 736.34 187c15.34 0 15.34 61.187 30.681 61.187 15.34 0 15.34-11.638 30.681-11.638 15.34 0 15.34-61.69 30.681-61.69 15.34 0 15.34-56.34 30.68-56.34 15.341 0 15.341-41.181 30.682-41.181 15.34 0 15.34-48.837 30.68-48.837 15.341 0 15.341 20.503 30.681 20.503 15.34 0 15.34-47.324 30.681-47.324 15.34 0 15.34 75.826 30.681 75.826 15.34 0 15.34-51.587 30.68-51.587C1058.49 25.919 1058.49 0 1073.83 0c15.34 0 15.34 8.314 30.68 8.314 15.341 0 15.341 26.37 30.681 26.37 15.34 0 15.34-11.192 30.681-11.192 15.34 0 15.34 31.14 30.681 31.14 15.34 0 15.34-52.952 30.681-52.952 15.34 0 15.34 104.874 30.68 104.874 15.341 0 15.341-80.635 30.682-80.635 15.34 0 15.34 57.3 30.68 57.3 15.341 0 15.341-37.03 30.681-37.03 15.34 0 15.34 37.211 30.681 37.211 15.34 0 15.34-37.21 30.681-37.21 15.34 0 15.34 105.18 30.681 105.18v248.082a5.547 5.547 0 0 1-5.546 5.548H5.546A5.547 5.547 0 0 1 0 399.452V151Z" fill="url(#a)" fill-rule="nonzero" opacity=".545" transform="matrix(-1 0 0 1 1440 1)"/><path d="M1440 152c-15.34 0-15.34-33.63-30.68-33.63-15.341 0-15.341-68.366-30.682-68.366-15.34 0-15.34 34.396-30.68 34.396-15.341 0-15.341-72.558-30.681-72.558-15.34 0-15.34 23.842-30.681 23.842-15.34 0-10.256 42.822-25.596 42.822s-20.426 88.994-35.766 88.994-15.34-120.31-30.68-120.31c-15.341 0-15.341 87.876-30.682 87.876-15.34 0-15.34-56.56-30.68-56.56s-6.352 29.28-21.692 29.28S1087.17 2.79 1071.83 2.79c-15.34 0-15.34 11.143-30.681 11.143-15.34 0-15.34 64.573-30.68 64.573-15.341 0-15.341 60.02-30.682 60.02-15.34 0-15.34-68.763-30.68-68.763-15.341 0-15.341-57.92-30.681-57.92-15.34 0-15.34 17.72-30.681 17.72-15.34 0-15.34 26.188-30.681 26.188-15.34 0-15.34 62.874-30.681 62.874-15.34 0-15.34 24.974-30.68 24.974-15.341 0-15.341-2.48-30.682-2.48-15.34 0-15.34 88.73-30.68 88.73C719 229.85 719 188 703.66 188c-15.34 0-15.34 61.727-30.681 61.727-15.34 0-15.34-11.664-30.681-11.664-15.34 0-15.34-61.823-30.681-61.823-15.34 0-15.34-56.463-30.68-56.463-15.341 0-15.341-41.271-30.682-41.271-15.34 0-15.34-48.943-30.68-48.943-15.341 0-15.341 20.44-30.681 20.44-15.34 0-15.34-47.32-30.681-47.32-15.34 0-15.34 75.823-30.681 75.823-15.34 0-15.34-52.754-30.68-52.754C381.51 25.752 381.51 1 366.17 1c-15.34 0-15.34 8.332-30.68 8.332-15.341 0-15.341 26.427-30.681 26.427-15.34 0-15.34-11.216-30.681-11.216-15.34 0-15.34 31.208-30.681 31.208-15.34 0-15.34-52.96-30.681-52.96-15.34 0-15.34 104.995-30.68 104.995-15.341 0-15.341-80.811-30.682-80.811-15.34 0-15.34 57.425-30.68 57.425-15.341 0-15.341-36.662-30.681-36.662-15.34 0-15.34 36.481-30.681 36.481-15.34 0-15.34-36.929-30.681-36.929C13.34 47.29 13.34 151.786-2 151.786" stroke="#6146D7" stroke-width="2" opacity=".546"/></g></svg>
